X:2
T:Angeline The Baker
M:C
L:1/4
Z:abc-transcription Josh Larios <hades@elsewhere.org>, 2017.02.13
G:Key: D
K:D
[P:A]|: A- |"D"A B d> A | B d2 d/B/ | A B d A | "G"B2 B2 |
| "D"A B d> e | f e d> e | "D"f e "G"d B | "A"A> B A :|
[P:B]|: f/g/ | "D"a f e d/e/ | f e d> f | a f e d | "G"B> d B f/g/ |
| "D"a f e d/e/ | f e d> e | "D"f e "G"d B | "A"A> B A :|

